X:1
T:The Man Of The House
M:C|
L:1/8
R:Reel
B:O'Neill's 1398
N:"collected by O'Reilly"
Z:Ed Wosika
K:Em
D | E2 BE GABG | E2 BE FD (3AGF | E2 BE GAB^c | dB{c}BA BE E :|
d | e>fge fgaf | gfed eB{Bc}BA | e>fge fgaf | gfed Beed |
 efge fgaf | gfed efga | (3bag af gfed | eB{Bc}BA BE{EF}ED ||
